X: 41195
T: Triumph Of The Opening Of The People's Whisky, The
R: polka
M: 2/4
K: Gmajor
K:Dmix
|:a>g|fd d/2d/2d|cdBd|A>G FG|A^ceg|a>g fd|cdBd|c>B AB|c2 a>g|
fd d/2d/2d|cdBd|A>G FG|A^ceg|a>g fd|cdBd|1 cBGB|A2:|2 cBGB|AD D/2D/2D||
G,>G, G,A,|B,G,B,D|C>C CD|ECEG|F>G FE|DEDC|B,DGE|D4|
G,>G, G,A,|B,G,B,D|C>C CD|ECEG|F>G FE|DcBA|GFGA|B4|
G,>G, G,A,|B,G,B,D|C>C CD|ECEG|F>G FE|DEDC|B,DGF|EDEF|
G>G GA|BGBd|c>c cd|eceg|f>f fg|adfa|.g2 .d2|.g2 "^Pop!" z2||

